!!!COM: Bach, Johann Sebastian (disputed)
!!!OTL: Fuga
!!!OMV: 2
!!!SCT: BWV 554
!!!SCA: Thematisches-systematisches Verzeichnis der musikalischen Werke von Johann Sebastian Bach (Schmieder 1990)
**kern	**kern	**kern	**kern	**kern
*MM76	*MM76	*MM76	*MM76	*MM76
*k[b-]	*k[b-]	*k[b-]	*k[b-]	*k[b-]
*M4/4	*M4/4	*M4/4	*M4/4	*M4/4
*tb32	*tb32	*tb32	*tb32	*tb32
=1	=1	=1	=1	=1
1r	1r	1r	1r	4r
.	.	.	.	8r
.	.	.	.	8a
.	.	.	.	8f
.	.	.	.	8a
.	.	.	.	8e
.	.	.	.	8a
=2	=2	=2	=2	=2
1r	1r	1r	1r	8d
.	.	.	.	8f
.	.	.	.	4b-
.	.	.	.	8a
.	.	.	.	16b
.	.	.	.	16cc#
.	.	.	.	[4dd
=3	=3	=3	=3	=3
1r	1r	1r	2r	8dd]
.	.	.	.	16cc#
.	.	.	.	16b
.	.	.	.	8a
.	.	.	.	8g
.	.	.	4r	8f
.	.	.	.	16d
.	.	.	.	16e
.	.	.	8r	16f
.	.	.	.	16g
.	.	.	8d	16f
.	.	.	.	16g
=4	=4	=4	=4	=4
1r	1r	1r	8c	4a
.	.	.	8e	.
.	.	.	8B	4g#
.	.	.	8e	.
.	.	.	8A	4a
.	.	.	8c	.
.	.	.	4f	8r
.	.	.	.	16a
.	.	.	.	16b
=5	=5	=5	=5	=5
1r	1r	1r	8e	[4cc
.	.	.	16f#	.
.	.	.	16g#	.
.	.	.	[4a	16cc]
.	.	.	.	16dd
.	.	.	.	16cc
.	.	.	.	16dd
.	.	.	8a]	4ee
.	.	.	16g#	.
.	.	.	16f#	.
.	.	.	8e	4g#T
.	.	.	8d	.
=6	=6	=6	=6	=6
1r	4r	1r	8c#	4a
.	.	.	8A	.
.	8r	.	8B	8g
.	8A	.	8c#	8e
.	8F	.	4.d	4f
.	8A	.	.	.
.	8E	.	.	8g
.	8A	.	8c#	8e
=7	=7	=7	=7	=7
1r	8D	1r	4d	4f
.	8F	.	.	.
.	4B-	.	8r	8r
.	.	.	8d	16f
.	.	.	.	16g
.	8A	.	8c#	4.a
.	16B	.	16d	.
.	16c#	.	16e	.
.	[4d	.	4f	.
.	.	.	.	16b-
.	.	.	.	16a
=8	=8	=8	=8	=8
2r	8d]	1r	4e	4g
.	16c#	.	.	.
.	16B	.	.	.
.	8A	.	8cc#	[4ee
.	8G	.	8b	.
4r	8F	.	4a	8ee]
.	8A	.	.	16dd
.	.	.	.	16cc#
8r	8d	.	16f	16dd
.	.	.	16g	16ee
8D	8A	.	8a	8ff
=9	=9	=9	=9	=9
8C	4A	1r	4a	4ee
8E	.	.	.	.
8BB	4G#	.	[4b	4dd
8E	.	.	.	.
8AA	4.A	.	8b]	4.cc
8C	.	.	8e	.
4F	.	.	4a	.
.	8B	.	.	8dd
=10	=10	=10	=10	=10
8E	4.c	1r	8g#	4.ee
16F#	.	.	16a	.
16G#	.	.	16b	.
[4A	.	.	4cc	.
.	16d	.	.	16ff#
.	16c	.	.	16ee
8A]	4B	.	4f#	4dd#
16G#	.	.	.	.
16F#	.	.	.	.
8E	4B	.	4g#	[4ee
8D	.	.	.	.
=11	=11	=11	=11	=11
8C	2.A	1r	4a	8ee]
8BB	.	.	.	8dd
4AA	.	.	4e	8cc
.	.	.	.	16dd
.	.	.	.	16cc
4D	.	.	8f	4b
.	.	.	16g	.
.	.	.	16f	.
4E	4G#	.	[4e	8r
.	.	.	.	8dd
=12	=12	=12	=12	=12
4AA	4A	1r	4e]	8cc
.	.	.	.	8ee
4r	4G#	.	4e	8b
.	.	.	.	8ee
2r	4c	.	4e	8a
.	.	.	.	8cc
.	8r	.	8r	[4ff
.	8A	.	8cc	.
=13	=13	=13	=13	=13
1r	8B	1r	8dd	4.ff]
.	8G	.	8b	.
.	8c	.	4g	.
.	8C	.	.	[8ee
.	[2F	.	4a	8ee]
.	.	.	.	8a
.	.	.	4A	8dd
.	.	.	.	16ee
.	.	.	.	16ff
=14	=14	=14	=14	=14
1r	4F]	1r	4d	8b
.	.	.	.	16a
.	.	.	.	16g
.	8E	.	8g	2cc
.	16D	.	16f	.
.	16C	.	16e	.
.	8G	.	4d	.
.	8F	.	.	.
.	8G	.	8r	4b
.	8GG	.	8g	.
=15	=15	=15	=15	=15
1r	8C	1r	8e	4cc
.	8E	.	8g	.
.	8.G	.	8d	8r
.	.	.	8g	8b
.	16F	.	.	.
.	8E	.	8c	4cc
.	8C	.	8e	.
.	4F	.	4a	8r
.	.	.	.	16cc
.	.	.	.	16dd
=16	=16	=16	=16	=16
1r	8E	1r	8g	[4ee
.	16F	.	16a	.
.	16G	.	16b	.
.	8A	.	[4cc	16ee]
.	.	.	.	16ff
.	8E	.	.	16ee
.	.	.	.	16ff
.	8F	.	8cc]	[2dd
.	8D	.	16b	.
.	.	.	16a	.
.	16B	.	8g	.
.	16A	.	.	.
.	16B	.	8f	.
.	16G	.	.	.
=17	=17	=17	=17	=17
1r	4c	1r	4e	8dd]
.	.	.	.	16cc
.	.	.	.	16b-
.	8r	.	8r	8a
.	8c#	.	8e	8g
.	[4d	.	[4f	16f
.	.	.	.	16a
.	.	.	.	16g
.	.	.	.	16a
.	16d]	.	16f]	[4b-
.	16c	.	16e	.
.	16d	.	16f	.
.	16B-	.	16d	.
=18	=18	=18	=18	=18
4r	8c	1r	8e	8b-]
.	8d	.	[8f	8a
8r	8B-	.	8f]	4g
8C	8c	.	8e	.
8AA	4c	.	4a	4.f
8C	.	.	.	.
8GG	8B-	.	8b-	.
8C	8c	.	[8g	8e
=19	=19	=19	=19	=19
8FF	4c	1r	8g]	4.a
8AA	.	.	16f	.
.	.	.	16e	.
4D	8F	.	4f	.
.	8G	.	.	8b
8C	4.A	.	8e	4.cc
16D	.	.	16f	.
16E	.	.	16g	.
[4F	.	.	4a	.
.	16B	.	.	16dd
.	16A	.	.	16cc
=20	=20	=20	=20	=20
8F]	4G	1r	4d	4b
16E	.	.	.	.
16D	.	.	.	.
8C	4G	.	2e	[4cc
8BB	.	.	.	.
4AA	8A	.	.	8cc]
.	16G	.	.	16b
.	16F	.	.	16a
8r	8E	.	8r	8g
8BB	8G	.	8d	8f
=21	=21	=21	=21	=21
4C	4G	1r	4c	8e
.	.	.	.	8g
4BB	4G	.	4d	8d
.	.	.	.	8g
4C	4G	.	4c	8e
.	.	.	.	8g
4r	4r	.	8r	8c
.	.	.	8c	8e
=22	=22	=22	=22	=22
1r	2r	4f	8A	2r
.	.	.	8c	.
.	.	4e	8G	.
.	.	.	8c	.
.	4r	4f	8A	4r
.	.	.	8c	.
.	8r	4A	8F	8r
.	8F#	.	8d	16dd
.	.	.	.	16cc
=23	=23	=23	=23	=23
1r	4G	4B-	4d	8b-
.	.	.	.	8dd
.	4F#	4A	4d	8a
.	.	.	.	8dd
.	4G	4B-	4d	8b-
.	.	.	.	8dd
.	8r	8r	8r	8g
.	8G	8B-	8e	16ee
.	.	.	.	16dd
=24	=24	=24	=24	=24
2r	4A	4A	4e	8cc#
.	.	.	.	8ee
.	4G#	4B	4e	8b
.	.	.	.	8ee
4r	4A	4A	4e	8cc#
.	.	.	.	8ee
8r	8r	8r	8r	8a
8AA	8A	8e	16a	8cc#
.	.	.	16g	.
=25	=25	=25	=25	=25
4D	4A	4d	8f	4dd
.	.	.	8a	.
4C#	4A	4e	8e	4r
.	.	.	8a	.
4F	4A	4A	8d	4r
.	.	.	8f	.
4E	4G	4r	4b-	8r
.	.	.	.	8dd
=26	=26	=26	=26	=26
4A	4A	2r	8a	8cc#
.	.	.	16b	16dd
.	.	.	16cc#	16ee
8F	4A	.	[4dd	4ff
8D	.	.	.	.
4A	[2A	4r	8dd]	2ee
.	.	.	16cc#	.
.	.	.	16b	.
4AA	.	4c#	8a	.
.	.	.	8g	.
=27	=27	=27	=27	=27
4D	4A]	8d	4f	4dd
.	.	16c	.	.
.	.	16B-	.	.
8r	4r	4A	8r	8r
8D	.	.	8f#	8a
8BB-	2r	4G	4g	4dd
8D	.	.	.	.
8AA	.	4F#	[4a	4cc
8D	.	.	.	.
=28	=28	=28	=28	=28
8GG	4.G	1r	8a]	4.b-
8BB-	.	.	8d	.
4E-	.	.	4g	.
.	8A	.	.	8cc
8D	4.B-	.	8f#	4.dd
16E	.	.	16g	.
16F#	.	.	16a	.
[4G	.	.	4b-	.
.	16c	.	.	16ee
.	16B-	.	.	16dd
=29	=29	=29	=29	=29
8G]	2A	1r	4e	4cc#
16F	.	.	.	.
16E	.	.	.	.
8D	.	.	4f	[4dd
8C	.	.	.	.
8BB-	[2G	.	4g	8dd]
8AA	.	.	.	8cc
4GG	.	.	8d	4b-
.	.	.	16e	.
.	.	.	16d	.
=30	=30	=30	=30	=30
[1AA	4G]	1r	8c#	4.a
.	.	.	16B	.
.	.	.	16c#	.
.	8F	.	[4d	.
.	16G	.	.	16b-
.	16F	.	.	16a
.	4E	.	8d]	4g
.	.	.	8c#	.
.	8F	.	[4d	4f
.	8G	.	.	.
=31	=31	=31	=31	=31
2AA]	4.A	2r	4d]	2e
.	.	.	4c#	.
.	8G	.	.	.
2DD	2D	2F	2A	2d
==	==	==	==	==
*-	*-	*-	*-	*-
!!!ENC: Peter van Kranenburg (peter@musical-style-recognition.net)
!!!END: 2006-11-9
